app/component-library/components/Icons/Icon/assets/warning.svg

<svg width="24" height="24" viewBox="0 0 24 24" fill="none" xmlns="http://www.w3.org/2000/svg">
<path d="M12.2808 2C6.77076 2 2.28076 6.49 2.28076 12C2.28076 17.51 6.77076 22 12.2808 22C17.7908 22 22.2808 17.51 22.2808 12C22.2808 6.49 17.7908 2 12.2808 2ZM11.5308 8C11.5308 7.59 11.8708 7.25 12.2808 7.25C12.6908 7.25 13.0308 7.59 13.0308 8V13C13.0308 13.41 12.6908 13.75 12.2808 13.75C11.8708 13.75 11.5308 13.41 11.5308 13V8ZM13.2008 16.38C13.1508 16.51 13.0808 16.61 12.9908 16.71C12.8908 16.8 12.7808 16.87 12.6608 16.92C12.5408 16.97 12.4108 17 12.2808 17C12.1508 17 12.0208 16.97 11.9008 16.92C11.7808 16.87 11.6708 16.8 11.5708 16.71C11.4808 16.61 11.4108 16.51 11.3608 16.38C11.3108 16.26 11.2808 16.13 11.2808 16C11.2808 15.87 11.3108 15.74 11.3608 15.62C11.4108 15.5 11.4808 15.39 11.5708 15.29C11.6708 15.2 11.7808 15.13 11.9008 15.08C12.1408 14.98 12.4208 14.98 12.6608 15.08C12.7808 15.13 12.8908 15.2 12.9908 15.29C13.0808 15.39 13.1508 15.5 13.2008 15.62C13.2508 15.74 13.2808 15.87 13.2808 16C13.2808 16.13 13.2508 16.26 13.2008 16.38Z" fill="currentColor"/>
</svg>

<svg xmlns="http://www.w3.org/2000/svg" width="24" height="24" viewBox="0 0 24 24" fill="none"><path fill="currentColor" d="M12.28 2c-5.51 0-10 4.49-10 10s4.49 10 10 10 10-4.49 10-10-4.49-10-10-10Zm-.75 6c0-.41.34-.75.75-.75s.75.34.75.75v5c0 .41-.34.75-.75.75s-.75-.34-.75-.75V8Zm1.67 8.38c-.05.13-.12.23-.21.33-.1.09-.21.16-.33.21-.12.05-.25.08-.38.08s-.26-.03-.38-.08-.23-.12-.33-.21c-.09-.1-.16-.2-.21-.33a.995.995 0 0 1-.08-.38c0-.13.03-.26.08-.38s.12-.23.21-.33c.1-.09.21-.16.33-.21a1 1 0 0 1 .76 0c.12.05.23.12.33.21.09.1.16.21.21.33.05.12.08.25.08.38s-.03.26-.08.38Z"/></svg>
